source/work/images/artifact_experienceprinciples.svg

<svg xmlns="http://www.w3.org/2000/svg" width="64" height="64" viewBox="0 0 64 64"><style type="text/css">.frame{fill:#FFFFFF;} .content{opacity:0.5;fill:#FFFFFF;}</style><path class="frame" d="M60 5c1.103 0 2 .897 2 2v50c0 1.103-.897 2-2 2h-56c-1.103 0-2-.897-2-2v-50c0-1.103.897-2 2-2h56m0-1h-56c-1.657 0-3 1.343-3 3v50c0 1.657 1.343 3 3 3h56c1.657 0 3-1.343 3-3v-50c0-1.657-1.343-3-3-3z"/><path class="content" d="M21.071 19.917h-13.163c-.276 0-.5-.224-.5-.5s.224-.5.5-.5h13.163c.276 0 .5.224.5.5s-.224.5-.5.5zm.5 1.5c0-.276-.224-.5-.5-.5h-13.163c-.276 0-.5.224-.5.5s.224.5.5.5h13.163c.276 0 .5-.223.5-.5zm0 2c0-.276-.224-.5-.5-.5h-13.163c-.276 0-.5.224-.5.5s.224.5.5.5h13.163c.276 0 .5-.223.5-.5zm0 2c0-.276-.224-.5-.5-.5h-13.163c-.276 0-.5.224-.5.5s.224.5.5.5h13.163c.276 0 .5-.223.5-.5zm17.511-6c0-.276-.224-.5-.5-.5h-13.164c-.276 0-.5.224-.5.5s.224.5.5.5h13.163c.277 0 .501-.223.501-.5zm0 2c0-.276-.224-.5-.5-.5h-13.164c-.276 0-.5.224-.5.5s.224.5.5.5h13.163c.277 0 .501-.223.501-.5zm0 2c0-.276-.224-.5-.5-.5h-13.164c-.276 0-.5.224-.5.5s.224.5.5.5h13.163c.277 0 .501-.223.501-.5zm0 2c0-.276-.224-.5-.5-.5h-13.164c-.276 0-.5.224-.5.5s.224.5.5.5h13.163c.277 0 .501-.223.501-.5zm17-6c0-.276-.224-.5-.5-.5h-13.164c-.276 0-.5.224-.5.5s.224.5.5.5h13.163c.277 0 .501-.223.501-.5zm0 2c0-.276-.224-.5-.5-.5h-13.164c-.276 0-.5.224-.5.5s.224.5.5.5h13.163c.277 0 .501-.223.501-.5zm0 2c0-.276-.224-.5-.5-.5h-13.164c-.276 0-.5.224-.5.5s.224.5.5.5h13.163c.277 0 .501-.223.501-.5zm0 2c0-.276-.224-.5-.5-.5h-13.164c-.276 0-.5.224-.5.5s.224.5.5.5h13.163c.277 0 .501-.223.501-.5zm-34.511 18c0-.276-.224-.5-.5-.5h-13.163c-.276 0-.5.224-.5.5s.224.5.5.5h13.163c.276 0 .5-.223.5-.5zm0 2c0-.276-.224-.5-.5-.5h-13.163c-.276 0-.5.224-.5.5s.224.5.5.5h13.163c.276 0 .5-.223.5-.5zm0 2c0-.276-.224-.5-.5-.5h-13.163c-.276 0-.5.224-.5.5s.224.5.5.5h13.163c.276 0 .5-.223.5-.5zm0 2c0-.276-.224-.5-.5-.5h-13.163c-.276 0-.5.224-.5.5s.224.5.5.5h13.163c.276 0 .5-.223.5-.5zm17.511-6c0-.276-.224-.5-.5-.5h-13.164c-.276 0-.5.224-.5.5s.224.5.5.5h13.163c.277 0 .501-.223.501-.5zm0 2c0-.276-.224-.5-.5-.5h-13.164c-.276 0-.5.224-.5.5s.224.5.5.5h13.163c.277 0 .501-.223.501-.5zm0 2c0-.276-.224-.5-.5-.5h-13.164c-.276 0-.5.224-.5.5s.224.5.5.5h13.163c.277 0 .501-.223.501-.5zm0 2c0-.276-.224-.5-.5-.5h-13.164c-.276 0-.5.224-.5.5s.224.5.5.5h13.163c.277 0 .501-.223.501-.5zm17-6c0-.276-.224-.5-.5-.5h-13.164c-.276 0-.5.224-.5.5s.224.5.5.5h13.163c.277 0 .501-.223.501-.5zm0 2c0-.276-.224-.5-.5-.5h-13.164c-.276 0-.5.224-.5.5s.224.5.5.5h13.163c.277 0 .501-.223.501-.5zm0 2c0-.276-.224-.5-.5-.5h-13.164c-.276 0-.5.224-.5.5s.224.5.5.5h13.163c.277 0 .501-.223.501-.5zm0 2c0-.276-.224-.5-.5-.5h-13.164c-.276 0-.5.224-.5.5s.224.5.5.5h13.163c.277 0 .501-.223.501-.5zm-38.511-22c0-.276-.224-.5-.5-.5h-9.163c-.276 0-.5.224-.5.5s.224.5.5.5h9.163c.276 0 .5-.223.5-.5zm17.511 0c0-.276-.224-.5-.5-.5h-9.163c-.276 0-.5.224-.5.5s.224.5.5.5h9.163c.276 0 .5-.223.5-.5zm17 0c0-.276-.224-.5-.5-.5h-9.163c-.276 0-.5.224-.5.5s.224.5.5.5h9.163c.276 0 .5-.223.5-.5zm-34.511 24c0-.276-.224-.5-.5-.5h-9.163c-.276 0-.5.224-.5.5s.224.5.5.5h9.163c.276 0 .5-.223.5-.5zm17.511 0c0-.276-.224-.5-.5-.5h-9.163c-.276 0-.5.224-.5.5s.224.5.5.5h9.163c.276 0 .5-.223.5-.5zm17 0c0-.276-.224-.5-.5-.5h-9.163c-.276 0-.5.224-.5.5s.224.5.5.5h9.163c.276 0 .5-.223.5-.5zm-41.832-35.167v-4.5c0-.202-.122-.385-.309-.462-.187-.078-.401-.035-.545.108l-1.5 1.5c-.195.195-.195.512 0 .707s.512.195.707 0l.646-.646v3.293c0 .276.224.5.5.5s.501-.224.501-.5zm18.75 0c0-.276-.224-.5-.5-.5h-1.793l2.146-2.146c.085-.085.137-.198.145-.318.006-.087.045-.871-.5-1.458-.357-.384-.861-.578-1.498-.578s-1.141.194-1.498.578c-.546.586-.507 1.37-.5 1.458.02.275.246.483.534.463.275-.02.483-.259.463-.534 0-.004-.019-.432.235-.705.319-.343 1.206-.345 1.528-.004.158.167.212.393.23.545l-2.846 2.846c-.143.143-.186.358-.108.545.077.187.26.309.462.309h3c.276-.001.5-.225.5-.501zm16.522-.067c.313-.276.478-.644.478-1.065 0-.486-.181-.896-.522-1.185-.292-.248-.665-.375-1.026-.435l1.402-1.402c.143-.143.186-.358.108-.545-.077-.187-.26-.309-.462-.309h-3c-.276 0-.5.224-.5.5s.224.5.5.5h1.793l-1.396 1.396c-.154.154-.19.389-.091.583.099.193.312.3.526.264.343-.056 1.157-.08 1.5.21.078.068.168.176.168.423 0 .134-.042.229-.139.315-.431.382-1.639.396-2.299.314-.274-.034-.523.162-.558.435-.034.274.16.523.434.558.083.01.41.047.834.047.707 0 1.683-.103 2.25-.604zm-34.897 24.067v-4.5c0-.276-.224-.5-.5-.5s-.5.224-.5.5v4.5c0 .276.224.5.5.5s.5-.224.5-.5zm1-1.5c0-.276-.224-.5-.5-.5h-2.609l.594-2.379c.067-.268-.096-.539-.364-.606-.27-.069-.54.096-.606.364l-.75 3c-.038.149-.004.308.091.429.095.122.24.192.394.192h3.25c.276 0 .5-.224.5-.5zm17.375 0c0-1.791-1.555-1.978-3-1.998v-.502h2.5c.276 0 .5-.224.5-.5s-.224-.5-.5-.5h-3c-.276 0-.5.224-.5.5v1.5c0 .276.224.5.5.5 2.155 0 2.5.237 2.5 1 0 .785-.538 1-2.5 1-.276 0-.5.224-.5.5s.224.5.5.5c1.394 0 3.5 0 3.5-2zm13.5.375.073.495c.273-.041.462-.295.421-.568-.136-.917 0-1.621.405-2.095.584-.684 1.576-.707 1.602-.707.275-.001.498-.225.498-.5 0-.276-.224-.5-.5-.5-.059 0-1.458.012-2.352 1.048-.607.704-.823 1.68-.643 2.9.037.249.25.427.494.427l.075-.005zm3.427-.479c0-.902-.878-1.609-2-1.609s-2 .707-2 1.609.878 1.609 2 1.609 2-.707 2-1.609zm-1 0c0 .288-.411.609-1 .609s-1-.321-1-.609.411-.609 1-.609 1 .321 1 .609z"/></svg>

<?xml version="1.0" encoding="utf-8"?>
<!-- Generator: Adobe Illustrator 19.2.1, SVG Export Plug-In . SVG Version: 6.00 Build 0)  -->
<svg version="1.1" id="icons" xmlns="http://www.w3.org/2000/svg" xmlns:xlink="http://www.w3.org/1999/xlink" x="0px" y="0px"
	 width="64px" height="64px" viewBox="0 0 64 64" style="enable-background:new 0 0 64 64;" xml:space="preserve">
<style type="text/css">
	.frame{fill:#FFFFFF;}
	.content{opacity:0.5;fill:#FFFFFF;}
</style>
<path class="frame" d="M60,5c1.103,0,2,0.897,2,2v50c0,1.103-0.897,2-2,2H4c-1.103,0-2-0.897-2-2V7c0-1.103,0.897-2,2-2H60 M60,4H4
	C2.343,4,1,5.343,1,7v50c0,1.657,1.343,3,3,3h56c1.657,0,3-1.343,3-3V7C63,5.343,61.657,4,60,4L60,4z"/>
<path class="content" d="M21.071,19.917H7.908c-0.276,0-0.5-0.224-0.5-0.5s0.224-0.5,0.5-0.5h13.163c0.276,0,0.5,0.224,0.5,0.5
	S21.347,19.917,21.071,19.917z M21.571,21.417c0-0.276-0.224-0.5-0.5-0.5H7.908c-0.276,0-0.5,0.224-0.5,0.5s0.224,0.5,0.5,0.5
	h13.163C21.347,21.917,21.571,21.694,21.571,21.417z M21.571,23.417c0-0.276-0.224-0.5-0.5-0.5H7.908c-0.276,0-0.5,0.224-0.5,0.5
	s0.224,0.5,0.5,0.5h13.163C21.347,23.917,21.571,23.694,21.571,23.417z M21.571,25.417c0-0.276-0.224-0.5-0.5-0.5H7.908
	c-0.276,0-0.5,0.224-0.5,0.5s0.224,0.5,0.5,0.5h13.163C21.347,25.917,21.571,25.694,21.571,25.417z M39.082,19.417
	c0-0.276-0.224-0.5-0.5-0.5H25.418c-0.276,0-0.5,0.224-0.5,0.5s0.224,0.5,0.5,0.5h13.163C38.858,19.917,39.082,19.694,39.082,19.417
	z M39.082,21.417c0-0.276-0.224-0.5-0.5-0.5H25.418c-0.276,0-0.5,0.224-0.5,0.5s0.224,0.5,0.5,0.5h13.163
	C38.858,21.917,39.082,21.694,39.082,21.417z M39.082,23.417c0-0.276-0.224-0.5-0.5-0.5H25.418c-0.276,0-0.5,0.224-0.5,0.5
	s0.224,0.5,0.5,0.5h13.163C38.858,23.917,39.082,23.694,39.082,23.417z M39.082,25.417c0-0.276-0.224-0.5-0.5-0.5H25.418
	c-0.276,0-0.5,0.224-0.5,0.5s0.224,0.5,0.5,0.5h13.163C38.858,25.917,39.082,25.694,39.082,25.417z M56.082,19.417
	c0-0.276-0.224-0.5-0.5-0.5H42.418c-0.276,0-0.5,0.224-0.5,0.5s0.224,0.5,0.5,0.5h13.163C55.858,19.917,56.082,19.694,56.082,19.417
	z M56.082,21.417c0-0.276-0.224-0.5-0.5-0.5H42.418c-0.276,0-0.5,0.224-0.5,0.5s0.224,0.5,0.5,0.5h13.163
	C55.858,21.917,56.082,21.694,56.082,21.417z M56.082,23.417c0-0.276-0.224-0.5-0.5-0.5H42.418c-0.276,0-0.5,0.224-0.5,0.5
	s0.224,0.5,0.5,0.5h13.163C55.858,23.917,56.082,23.694,56.082,23.417z M56.082,25.417c0-0.276-0.224-0.5-0.5-0.5H42.418
	c-0.276,0-0.5,0.224-0.5,0.5s0.224,0.5,0.5,0.5h13.163C55.858,25.917,56.082,25.694,56.082,25.417z M21.571,43.417
	c0-0.276-0.224-0.5-0.5-0.5H7.908c-0.276,0-0.5,0.224-0.5,0.5s0.224,0.5,0.5,0.5h13.163C21.347,43.917,21.571,43.694,21.571,43.417z
	 M21.571,45.417c0-0.276-0.224-0.5-0.5-0.5H7.908c-0.276,0-0.5,0.224-0.5,0.5s0.224,0.5,0.5,0.5h13.163
	C21.347,45.917,21.571,45.694,21.571,45.417z M21.571,47.417c0-0.276-0.224-0.5-0.5-0.5H7.908c-0.276,0-0.5,0.224-0.5,0.5
	s0.224,0.5,0.5,0.5h13.163C21.347,47.917,21.571,47.694,21.571,47.417z M21.571,49.417c0-0.276-0.224-0.5-0.5-0.5H7.908
	c-0.276,0-0.5,0.224-0.5,0.5s0.224,0.5,0.5,0.5h13.163C21.347,49.917,21.571,49.694,21.571,49.417z M39.082,43.417
	c0-0.276-0.224-0.5-0.5-0.5H25.418c-0.276,0-0.5,0.224-0.5,0.5s0.224,0.5,0.5,0.5h13.163C38.858,43.917,39.082,43.694,39.082,43.417
	z M39.082,45.417c0-0.276-0.224-0.5-0.5-0.5H25.418c-0.276,0-0.5,0.224-0.5,0.5s0.224,0.5,0.5,0.5h13.163
	C38.858,45.917,39.082,45.694,39.082,45.417z M39.082,47.417c0-0.276-0.224-0.5-0.5-0.5H25.418c-0.276,0-0.5,0.224-0.5,0.5
	s0.224,0.5,0.5,0.5h13.163C38.858,47.917,39.082,47.694,39.082,47.417z M39.082,49.417c0-0.276-0.224-0.5-0.5-0.5H25.418
	c-0.276,0-0.5,0.224-0.5,0.5s0.224,0.5,0.5,0.5h13.163C38.858,49.917,39.082,49.694,39.082,49.417z M56.082,43.417
	c0-0.276-0.224-0.5-0.5-0.5H42.418c-0.276,0-0.5,0.224-0.5,0.5s0.224,0.5,0.5,0.5h13.163C55.858,43.917,56.082,43.694,56.082,43.417
	z M56.082,45.417c0-0.276-0.224-0.5-0.5-0.5H42.418c-0.276,0-0.5,0.224-0.5,0.5s0.224,0.5,0.5,0.5h13.163
	C55.858,45.917,56.082,45.694,56.082,45.417z M56.082,47.417c0-0.276-0.224-0.5-0.5-0.5H42.418c-0.276,0-0.5,0.224-0.5,0.5
	s0.224,0.5,0.5,0.5h13.163C55.858,47.917,56.082,47.694,56.082,47.417z M56.082,49.417c0-0.276-0.224-0.5-0.5-0.5H42.418
	c-0.276,0-0.5,0.224-0.5,0.5s0.224,0.5,0.5,0.5h13.163C55.858,49.917,56.082,49.694,56.082,49.417z M17.571,27.417
	c0-0.276-0.224-0.5-0.5-0.5H7.908c-0.276,0-0.5,0.224-0.5,0.5s0.224,0.5,0.5,0.5h9.163C17.347,27.917,17.571,27.694,17.571,27.417z
	 M35.082,27.417c0-0.276-0.224-0.5-0.5-0.5h-9.163c-0.276,0-0.5,0.224-0.5,0.5s0.224,0.5,0.5,0.5h9.163
	C34.858,27.917,35.082,27.694,35.082,27.417z M52.082,27.417c0-0.276-0.224-0.5-0.5-0.5h-9.163c-0.276,0-0.5,0.224-0.5,0.5
	s0.224,0.5,0.5,0.5h9.163C51.858,27.917,52.082,27.694,52.082,27.417z M17.571,51.417c0-0.276-0.224-0.5-0.5-0.5H7.908
	c-0.276,0-0.5,0.224-0.5,0.5s0.224,0.5,0.5,0.5h9.163C17.347,51.917,17.571,51.694,17.571,51.417z M35.082,51.417
	c0-0.276-0.224-0.5-0.5-0.5h-9.163c-0.276,0-0.5,0.224-0.5,0.5s0.224,0.5,0.5,0.5h9.163C34.858,51.917,35.082,51.694,35.082,51.417z
	 M52.082,51.417c0-0.276-0.224-0.5-0.5-0.5h-9.163c-0.276,0-0.5,0.224-0.5,0.5s0.224,0.5,0.5,0.5h9.163
	C51.858,51.917,52.082,51.694,52.082,51.417z M10.25,16.25v-4.5c0-0.202-0.122-0.385-0.309-0.462
	c-0.187-0.078-0.401-0.035-0.545,0.108l-1.5,1.5c-0.195,0.195-0.195,0.512,0,0.707s0.512,0.195,0.707,0l0.646-0.646v3.293
	c0,0.276,0.224,0.5,0.5,0.5S10.25,16.526,10.25,16.25z M29,16.25c0-0.276-0.224-0.5-0.5-0.5h-1.793l2.146-2.146
	c0.085-0.085,0.137-0.198,0.145-0.318c0.006-0.087,0.045-0.871-0.5-1.458C28.141,11.444,27.637,11.25,27,11.25
	s-1.141,0.194-1.498,0.578c-0.546,0.586-0.507,1.37-0.5,1.458c0.02,0.275,0.246,0.483,0.534,0.463
	c0.275-0.02,0.483-0.259,0.463-0.534c0-0.004-0.019-0.432,0.235-0.705c0.319-0.343,1.206-0.345,1.528-0.004
	c0.158,0.167,0.212,0.393,0.23,0.545l-2.846,2.846c-0.143,0.143-0.186,0.358-0.108,0.545c0.077,0.187,0.26,0.309,0.462,0.309h3
	C28.776,16.75,29,16.526,29,16.25z M45.522,16.183C45.835,15.907,46,15.539,46,15.118c0-0.486-0.181-0.896-0.522-1.185
	c-0.292-0.248-0.665-0.375-1.026-0.435l1.402-1.402c0.143-0.143,0.186-0.358,0.108-0.545c-0.077-0.187-0.26-0.309-0.462-0.309h-3
	c-0.276,0-0.5,0.224-0.5,0.5s0.224,0.5,0.5,0.5h1.793l-1.396,1.396c-0.154,0.154-0.19,0.389-0.091,0.583
	c0.099,0.193,0.312,0.3,0.526,0.264c0.343-0.056,1.157-0.08,1.5,0.21C44.91,14.763,45,14.871,45,15.118
	c0,0.134-0.042,0.229-0.139,0.315c-0.431,0.382-1.639,0.396-2.299,0.314c-0.274-0.034-0.523,0.162-0.558,0.435
	c-0.034,0.274,0.16,0.523,0.434,0.558c0.083,0.01,0.41,0.047,0.834,0.047C43.979,16.787,44.955,16.684,45.522,16.183z M10.625,40.25
	v-4.5c0-0.276-0.224-0.5-0.5-0.5s-0.5,0.224-0.5,0.5v4.5c0,0.276,0.224,0.5,0.5,0.5S10.625,40.526,10.625,40.25z M11.625,38.75
	c0-0.276-0.224-0.5-0.5-0.5H8.516l0.594-2.379c0.067-0.268-0.096-0.539-0.364-0.606c-0.27-0.069-0.54,0.096-0.606,0.364l-0.75,3
	c-0.038,0.149-0.004,0.308,0.091,0.429c0.095,0.122,0.24,0.192,0.394,0.192h3.25C11.401,39.25,11.625,39.026,11.625,38.75z
	 M29,38.75c0-1.791-1.555-1.978-3-1.998V36.25h2.5c0.276,0,0.5-0.224,0.5-0.5s-0.224-0.5-0.5-0.5h-3c-0.276,0-0.5,0.224-0.5,0.5v1.5
	c0,0.276,0.224,0.5,0.5,0.5c2.155,0,2.5,0.237,2.5,1c0,0.785-0.538,1-2.5,1c-0.276,0-0.5,0.224-0.5,0.5s0.224,0.5,0.5,0.5
	C26.894,40.75,29,40.75,29,38.75z M42.5,39.125 M42.573,39.62c0.273-0.041,0.462-0.295,0.421-0.568
	c-0.136-0.917,0-1.621,0.405-2.095c0.584-0.684,1.576-0.707,1.602-0.707c0.275-0.001,0.498-0.225,0.498-0.5
	c0-0.276-0.224-0.5-0.5-0.5c-0.059,0-1.458,0.012-2.352,1.048c-0.607,0.704-0.823,1.68-0.643,2.9
	c0.037,0.249,0.25,0.427,0.494,0.427C42.524,39.625,42.548,39.623,42.573,39.62z M46,39.141c0-0.902-0.878-1.609-2-1.609
	s-2,0.707-2,1.609s0.878,1.609,2,1.609S46,40.043,46,39.141z M45,39.141c0,0.288-0.411,0.609-1,0.609s-1-0.321-1-0.609
	s0.411-0.609,1-0.609S45,38.853,45,39.141z"/>
</svg>
